assets/ios/swift/Icons.xcassets/warning.imageset/warning.svg

<svg width="24" height="24" viewBox="0 0 24 24" fill="none" xmlns="http://www.w3.org/2000/svg">
<path d="M12.7125 17.7126C12.5208 17.9043 12.2833 18.0001 12 18.0001C11.7167 18.0001 11.4792 17.9043 11.2875 17.7126C11.0958 17.521 11 17.2835 11 17.0001C11 16.7168 11.0958 16.4793 11.2875 16.2876C11.4792 16.096 11.7167 16.0001 12 16.0001C12.2833 16.0001 12.5208 16.096 12.7125 16.2876C12.9042 16.4793 13 16.7168 13 17.0001C13 17.2835 12.9042 17.521 12.7125 17.7126Z" fill="black"/>
<path d="M12.7125 13.7126C12.5208 13.9043 12.2833 14.0001 12 14.0001C11.7167 14.0001 11.4792 13.9043 11.2875 13.7126C11.0958 13.521 11 13.2835 11 13.0001V9.00012C11 8.71679 11.0958 8.47929 11.2875 8.28762C11.4792 8.09596 11.7167 8.00012 12 8.00012C12.2833 8.00012 12.5208 8.09596 12.7125 8.28762C12.9042 8.47929 13 8.71679 13 9.00012V13.0001C13 13.2835 12.9042 13.521 12.7125 13.7126Z" fill="black"/>
<path fill-rule="evenodd" clip-rule="evenodd" d="M10.2635 3.03897C11.0313 1.69534 12.9687 1.69534 13.7364 3.03897L22.2901 18.0078C23.052 19.3412 22.0892 21.0001 20.5536 21.0001H3.44631C1.91067 21.0001 0.947935 19.3412 1.70983 18.0078L10.2635 3.03897ZM3.44631 19.0001L12 4.03125L20.5536 19.0001H3.44631Z" fill="black"/>
</svg>

<svg xmlns="http://www.w3.org/2000/svg" width="24" height="24" fill="black" viewBox="0 0 24 24">
  <path d="M12.713 17.712A.968.968 0 0 1 12 18a.968.968 0 0 1-.713-.288A.968.968 0 0 1 11 17a.97.97 0 0 1 .287-.712A.968.968 0 0 1 12 16a.97.97 0 0 1 .713.288c.191.191.287.429.287.712s-.096.52-.287.712Zm0-3.999A.968.968 0 0 1 12 14a.968.968 0 0 1-.713-.287A.968.968 0 0 1 11 13V9c0-.283.096-.52.287-.713A.968.968 0 0 1 12 8c.283 0 .52.096.713.287.191.192.287.43.287.713v4c0 .283-.096.52-.287.713Z"/>
  <path fill-rule="evenodd" d="M10.264 3.039c.767-1.344 2.705-1.344 3.472 0l8.554 14.969c.762 1.333-.2 2.992-1.736 2.992H3.446c-1.535 0-2.498-1.659-1.736-2.992l8.553-14.97ZM3.446 19 12 4.031 20.554 19H3.446Z" clip-rule="evenodd"/>
</svg>
